src/lib/packages/icons/src/assets/filled/stethoscope.svg

<svg xmlns="http://www.w3.org/2000/svg" width="24" height="24" fill="none"><path fill="currentColor" d="M21.5 10c0-1.378-1.121-2.5-2.5-2.5a2.503 2.503 0 0 0-2.5 2.5c0 1.022.618 1.901 1.5 2.288V15.5c0 2.481-2.019 4.5-4.5 4.5A4.505 4.505 0 0 1 9 15.5v-.576c2.987-.423 5-2.736 5-5.924V4.5c0-1.542-.958-2.5-2.5-2.5H11a1 1 0 1 0 0 2h.5c.448 0 .5.051.5.5V9c0 2.43-1.57 4-4 4-2.43 0-4-1.57-4-4V4.5c0-.449.052-.5.5-.5H5a1 1 0 1 0 0-2h-.5C2.958 2 2 2.958 2 4.5V9c0 3.188 2.013 5.501 5 5.924v.576c0 3.584 2.916 6.5 6.5 6.5s6.5-2.916 6.5-6.5v-3.212A2.501 2.501 0 0 0 21.5 10Z"/></svg>

<svg width="24" height="24" viewBox="0 0 24 24" fill="none" xmlns="http://www.w3.org/2000/svg">
<path d="M21.5 10C21.5 8.622 20.379 7.5 19 7.5C17.621 7.5 16.5 8.622 16.5 10C16.5 11.022 17.118 11.9011 18 12.2881V15.5C18 17.981 15.981 20 13.5 20C11.019 20 9 17.981 9 15.5V14.9241C11.987 14.5011 14 12.188 14 9V4.5C14 2.958 13.042 2 11.5 2H11C10.447 2 10 2.448 10 3C10 3.552 10.447 4 11 4H11.5C11.948 4 12 4.051 12 4.5V9C12 11.43 10.43 13 8 13C5.57 13 4 11.43 4 9V4.5C4 4.051 4.052 4 4.5 4H5C5.553 4 6 3.552 6 3C6 2.448 5.553 2 5 2H4.5C2.958 2 2 2.958 2 4.5V9C2 12.188 4.013 14.5011 7 14.9241V15.5C7 19.084 9.916 22 13.5 22C17.084 22 20 19.084 20 15.5V12.2881C20.882 11.9011 21.5 11.022 21.5 10Z" fill="currentColor"/>
</svg>
